X: 168
T:Descendi in ortum meum
N: Derived from Jos1403-Descendi_in_ortum_meum.krn
C: Josquin des Prez
%%abc-version 2.0
%%abcx-abcm2ps-target-version 5.9.1 (29 Sep 2008)
%%abc-creator hum2abc beta
%%abcx-conversion-date 2019/02/12 16:15:46
%%abc-edited-by Jesse Rodin
%%abc-edited-by Will Watson 15/12/2011
%%abcx-initial-encoding-date 2012/01/03/
%%humdrum-veritas 3303746712
%%humdrum-veritas-data 703279694
%%linebreak <none>
%%barnumbers 0
L: 1/4
M: 2/1
Q: 1/2=120
%%staves [1 2 3 4]
V: 1 clef=treble
V: 2 clef=treble-8
V: 3 clef=treble-8
V: 4 clef=bass
K: F
[V:1] F8- | 
[V:2] F4A4- | 
[V:3] F8 | 
[V:4] F,8- | 
[V:1] F8 | 
[V:2] A2B2c4 | 
[V:3] A6B2 | 
[V:4] F,4A,4- | 
[V:1] A6B2 | 
[V:2] c3BA2GF | 
[V:3] c8 | 
[V:4] A,2B,2C4 | 
[V:1] c8 | 
[V:2] E3DC2c2- | 
[V:3] c4z2A2- | 
[V:4] C,3D,E,2F,2- | 
[V:1] c8- | 
[V:2] cde2c2d2 | 
[V:3] A2G2A4 | 
[V:4] F,2E,2F,4 | 
[V:1] c8 | 
[V:2] e2c3def | 
[V:3] G3AG2A2- | 
[V:4] C,8- | 
[V:1] z8 | 
[V:2] gfede4 | 
[V:3] A2GFG4 | 
[V:4] C,8 | 
[V:1] d4f4 | 
[V:2] f4z2d2 | 
[V:3] F8 | 
[V:4] z4D,4 | 
[V:1] c4d4 | 
[V:2] A2f4ed | 
[V:3] z8 | 
[V:4] F,8 | 
[V:1] c8 | 
[V:2] e2f3efe | 
[V:3] G8 | 
[V:4] C,8 | 
[V:1] z2B4A2- | 
[V:2] fedcB3c | 
[V:3] B4F4 | 
[V:4] D,8 | 
[V:1] A2GFE4 | 
[V:2] c4z2c2 | 
[V:3] G8 | 
[V:4] C,8 | 
[V:1] F8 | 
[V:2] c4d4 | 
[V:3] F8 | 
[V:4] F,4z2F,2 | 
[V:1] z8 | 
[V:2] c4z2B2- | 
[V:3] z8 | 
[V:4] F,4G,4 | 
[V:1] z8 | 
[V:2] B2A2G4 | 
[V:3] z2c2c4 | 
[V:4] F,2F,4E,2 | 
[V:1] z4c4 | 
[V:2] A4z2G2 | 
[V:3] d4c4 | 
[V:4] D,4E,2C,2- | 
[V:1] c4d4 | 
[V:2] A2c4=B2 | 
[V:3] z8 | 
[V:4] C,D,E,C,G,2G,2 | 
[V:1] c4z2B2- | 
[V:2] c4z2d2- | 
[V:3] z8 | 
[V:4] A,4G,4 | 
[V:1] BA/B/A3GG2- | 
[V:2] d2cBA2e2 | 
[V:3] z4z2B2- | 
[V:4] z2F,4E,2 | 
[V:1] G2F2G4 | 
[V:2] f2d4^c2 | 
[V:3] B2A2G4 | 
[V:4] D,4E,4 | 
[V:1] z2F2G4 | 
[V:2] d4z2g2- | 
[V:3] A4G4 | 
[V:4] D,4E,4 | 
[V:1] F4z2G2- | 
[V:2] gff3ee2- | 
[V:3] A4G4 | 
[V:4] D,4z2C,2- | 
[V:1] GFD2C2G2- | 
[V:2] edd3cc2- | 
[V:3] z2F4E2 | 
[V:4] C,2B,,2C,4 | 
[V:1] GFF4E2 | 
[V:2] c2B2c4 | 
[V:3] F4G4 | 
[V:4] D,4C,4 | 
[V:1] F2A4GF | 
[V:2] c8- | 
[V:3] F2c4BA | 
[V:4] F,,8 | 
[V:1] E2F4E2 | 
[V:2] c8 | 
[V:3] G3FG4 | 
[V:4] z4C,4 | 
[V:1] F8- | 
[V:2] z4c4 | 
[V:3] F8 | 
[V:4] D,4F,4 | 
[V:1] F8 | 
[V:2] d4f4 | 
[V:3] z8 | 
[V:4] F,6F,2 | 
[V:1] z8 | 
[V:2] f6f2 | 
[V:3] z8 | 
[V:4] F,3E,D,C,D,2- | 
[V:1] z8 | 
[V:2] f2edc4 | 
[V:3] F8 | 
[V:4] D,2C,B,,A,,4 | 
[V:1] z4F4 | 
[V:2] z2d4d2 | 
[V:3] G4B4 | 
[V:4] G,,4z4 | 
[V:1] G4B4 | 
[V:2] d2d2d4 | 
[V:3] B6B2 | 
[V:4] z2G,4G,2 | 
[V:1] B6B2 | 
[V:2] z2B2B3A | 
[V:3] B4z2B2 | 
[V:4] G,2G,2G,4 | 
[V:1] B4z4 | 
[V:2] G4A4 | 
[V:3] B4A4 | 
[V:4] z2G,4F,2 | 
[V:1] z8 | 
[V:2] B4c4 | 
[V:3] G4A4 | 
[V:4] G,4F,4 | 
[V:1] z2B2B4 | 
[V:2] B3AG2g2- | 
[V:3] B8 | 
[V:4] z2G,3F,G,2 | 
[V:1] A4G4 | 
[V:2] g2f2g2d2- | 
[V:3] z2c3BB2- | 
[V:4] D,2F,2C,2G,2- | 
[V:1] A4B4 | 
[V:2] def2e2d2 | 
[V:3] BAA4G2 | 
[V:4] G,2F,2G,2B,2 | 
[V:1] z2c3BB2- | 
[V:2] c3BA2Bc | 
[V:3] A4z2d2- | 
[V:4] F,3G,A,2G,2- | 
[V:1] BAA4G2 | 
[V:2] def4e2 | 
[V:3] dcA2B4 | 
[V:4] G,2F,2G,4 | 
[V:1] A4z2A2 | 
[V:2] f3gf2ed | 
[V:3] c4d4 | 
[V:4] F,3E,D,3C,/B,,/ | 
[V:1] A3GA2B2- | 
[V:2] e2f4Bc | 
[V:3] c3BAGd2- | 
[V:4] A,,2F,3D,G,2- | 
[V:1] BAA4G2 | 
[V:2] def2e2d2 | 
[V:3] dcA2B4 | 
[V:4] G,2F,2G,4 | 
[V:1] A8 | 
[V:2] z2f4e2 | 
[V:3] A8 | 
[V:4] D,4z4 | 
[V:1] z8 | 
[V:2] f4g4 | 
[V:3] z8 | 
[V:4] z2F,4E,2 | 
[V:1] z8 | 
[V:2] c2f2e2d2- | 
[V:3] z8 | 
[V:4] F,4G,4 | 
[V:1] z8 | 
[V:2] d2^c2d4 | 
[V:3] z4z2B2- | 
[V:4] E,4D,4 | 
[V:1] z4z2F2- | 
[V:2] z2D2F4 | 
[V:3] B2A2B4 | 
[V:4] z2D,2D,4 | 
[V:1] F2E2F4 | 
[V:2] G4F3f | 
[V:3] c4A4 | 
[V:4] C,4D,4 | 
[V:1] G4E4 | 
[V:2] e2d4^c2 | 
[V:3] G4z4 | 
[V:4] G,,2G,2A,3G, | 
[V:1] D2F4ED | 
[V:2] d4z2D2 | 
[V:3] z2A4G2 | 
[V:4] F,E,D,3C,B,,2 | 
[V:1] CDEFGABc | 
[V:2] E2C2D4 | 
[V:3] A2G3FF2- | 
[V:4] A,,2C,4B,,2 | 
[V:1] A2G3FF2- | 
[V:2] C2c2A2B2- | 
[V:3] F2E2F4 | 
[V:4] C,4D,4 | 
[V:1] F2EDE4 | 
[V:2] Bcd2c4 | 
[V:3] G4G4 | 
[V:4] B,,4C,4 | 
[V:1] F8 | 
[V:2] z2c2c3B/c/ | 
[V:3] F8 | 
[V:4] F,,8 | 
[V:1] z8 | 
[V:2] dcf4e2 | 
[V:3] z2F2c3B/c/ | 
[V:4] z8 | 
[V:1] z8 | 
[V:2] f2F2G2G2 | 
[V:3] dcf4e2 | 
[V:4] z2F,,2C,3B,,/C,/ | 
[V:1] z8 | 
[V:2] F4z4 | 
[V:3] f2F2G2G2 | 
[V:4] D,C,F,4E,2 | 
[V:1] z2F2F3E/F/ | 
[V:2] z2FGABcd | 
[V:3] FGABc2F2 | 
[V:4] F,6E,D, | 
[V:1] GFB4A2 | 
[V:2] e2f6 | 
[V:3] c2d2c4 | 
[V:4] C,2B,,2F,4 | 
[V:1] B6B2 | 
[V:2] d2g3f_ed | 
[V:3] B8 | 
[V:4] G,6G,2 | 
[V:1] B4G4 | 
[V:2] _e2d4c2 | 
[V:3] z4G4 | 
[V:4] G,4_E,4 | 
[V:1] F3GA2F2- | 
[V:2] d8- | 
[V:3] A3BA2d2- | 
[V:4] D,8- | 
[V:1] FDG4^F2 | 
[V:2] d8 | 
[V:3] d2cBA4 | 
[V:4] D,8 | 
[V:1] G3ABGd2- | 
[V:2] d3ed2g2- | 
[V:3] z2G3ABG | 
[V:4] G,8- | 
[V:1] dcc4=B2 | 
[V:2] g4g3f | 
[V:3] B2c2d4 | 
[V:4] G,8 | 
[V:1] c8 | 
[V:2] edc2A2GF | 
[V:3] c4z2c2 | 
[V:4] C,2F,2F,4 | 
[V:1] z8 | 
[V:2] G4F4 | 
[V:3] c4B4 | 
[V:4] E,4D,3E, | 
[V:1] z8 | 
[V:2] z8 | 
[V:3] A4B4 | 
[V:4] F,2D,4E,2- | 
[V:1] z8 | 
[V:2] z8 | 
[V:3] c6B2- | 
[V:4] E,2D,C,C,2G,2- | 
[V:1] z8 | 
[V:2] z8 | 
[V:3] BAGFG4 | 
[V:4] G,F,F,4E,2 | 
[V:1] z4z2c2 | 
[V:2] z2f2f4 | 
[V:3] F8 | 
[V:4] F,8 | 
[V:1] c4B4 | 
[V:2] e4d3e | 
[V:3] z8 | 
[V:4] z8 | 
[V:1] A4B4 | 
[V:2] f2d4e2- | 
[V:3] z8 | 
[V:4] z8 | 
[V:1] c6B2- | 
[V:2] e2dcc2g2- | 
[V:3] z8 | 
[V:4] z8 | 
[V:1] BAGFG4 | 
[V:2] gff4e2 | 
[V:3] z8 | 
[V:4] z8 | 
[V:1] F4z2E2- | 
[V:2] f4z4 | 
[V:3] F4G4 | 
[V:4] z2B,,4C,2- | 
[V:1] E2F3GA2- | 
[V:2] z2F2A3B | 
[V:3] A4A4 | 
[V:4] C,2D,4C,B,, | 
[V:1] A2GFE2G2- | 
[V:2] c4z2c2 | 
[V:3] A4G4 | 
[V:4] A,,3B,,C,4 | 
[V:1] GFF4E2 | 
[V:2] c4c3B | 
[V:3] A4G4 | 
[V:4] z2F,,2C,4 | 
[V:1] F4z2G2 | 
[V:2] A2GFG4 | 
[V:3] F4E4 | 
[V:4] F,,4z2C,2 | 
[V:1] F2A3GG2- | 
[V:2] z2d4c2 | 
[V:3] z2F2G4 | 
[V:4] D,4E,4 | 
[V:1] GFF4E2 | 
[V:2] d4B2c2 | 
[V:3] A4G4 | 
[V:4] D,4z2C,2 | 
[V:1] F2A3GG2- | 
[V:2] A2d4c2 | 
[V:3] z2F2G4 | 
[V:4] D,4E,4 | 
[V:1] GFF4E2 | 
[V:2] d4z2G2 | 
[V:3] A4G4 | 
[V:4] D,4z2C,2 | 
[V:1] F2G2F2G2 | 
[V:2] d2c2d2B2 | 
[V:3] z2G2A2G2 | 
[V:4] D,2E,2D,2E,2 | 
[V:1] E2A2GF2E/D/ | 
[V:2] c2e2d4 | 
[V:3] c3BA2B2 | 
[V:4] C,4D,2B,,2 | 
[V:1] E4z2G2 | 
[V:2] c4z2c2 | 
[V:3] G4z2G2 | 
[V:4] C,4z2E,2 | 
[V:1] F2G2E2A2- | 
[V:2] d2c3BAG | 
[V:3] A2G2c3B | 
[V:4] F,2E,2C,3D,/E,/ | 
[V:1] AG/F/F4E2 | 
[V:2] A2d4c2- | 
[V:3] A2B2G4 | 
[V:4] F,2B,,2C,4 | 
[V:1] F3GF2ED | 
[V:2] c2BAB4 | 
[V:3] F8 | 
[V:4] D,8 | 
[V:1] !fermata!E8 | 
[V:2] !fermata!c8 | 
[V:3] !fermata!G8 | 
[V:4] !fermata!C,8 | 
[V:1] F8 |]  
[V:2] c8 |]  
[V:3] F8 |]  
[V:4] F,,8 |]  



